X: 14967
T: Geevagh, The
R: jig
M: 6/8
K: Edorian
Bd||ege dBA|AGE GED|~G3 GAB|deB dBd|
e2e dBA|~A3 GED|G2B dBd|AFD Ggg|
e2e dBA|AGE GED|GBd GAB|deB dBd|
ege d2A|AGE GED|GAB d2d|AFD G2z||
GB{c}d gB{c}d|fB{c}d edB|G2d efg|~f3 edB|
GBd ~g3|f2f edB|GAB dBd|AFD G2z:|
GBd gbg|f2f edB|GBd efg|f{g}af edB|
GBd ~g3|f2f edB|GAB dBd|AFD G2z:|

